X:1
T:Lilì Kangy
T:Lilì Kangy
T:Salvatore Gambardella
T:Giovanni Capurro
T:Tre sòre piccerelle, vènono appriesso a me... e fanno 'e stelletelle pe' dint'a sti cafè... Ma i' sóngo 'a vera stella d'ogne cafè sciantá: sulo cu na resélla, ve faccio cunzulá! Chi mme piglia pe' Frangesa,
T:A 'e vvote, 'ncoppo foglio, sento parlá 'e Lilí... Io leggo, ma mme 'mbroglio: che vuó' arrivá a capí? Ma chesto nun mme 'mporta: s'ha da sapé abballá... Basta ca 'a veste è corta, tutto se po' aggiustá! Chi mme piglia pe' Frangesa,
C:Salvatore Gambardella
Z:Giovanni Capurro
%%score 1 { 2 | 3 }
L:1/8
Q:1/4=128
M:2/4
K:G
V:1 treble nm="Voice"
V:2 treble nm="Piano"
V:3 bass 
V:1
"^Allegro" x | z4 | z4 | z4 | z4 | z4 | z4 | z4 | z4 || z4 | z2 z B | D E F G | B B2 D | %13
w: ||||||||||Mo|nun so' cchiù Cun\-|cet\- ta, ma|
 E F A3/2 G/ | F2 z d | d d d d | d d2 e | d c B A | G2 z B | D E F G | B B2 D | E F A3/2 G/ | %22
w: so' Li\- li Kan\-|gy, scian\-|to\- sa pre\- di\-|ler\- ta a\-|vi\- te vo\- gli'e|dì! Quan\-|no me ri\- but\-|ta\- ie, e|chi v'o po' cun\-|
 F2 z d | d d d d | d d2 e | ^c B A e | !fermata!d2 z G/ G/ | G G G G | F d2 A/ A/ | A A A A | %30
w: tà? 'A|gen\- te me me\-|na\- ie maz\-|zet\- te 'nquan\- ti\-|tà. Chi me|pi\- glia pe' fran\-|ce\- sa, chi me|pi\- glia pe' spa\-|
 G d2 e/ e/ | e e e e | e/d/ c2 d/ d/ | d d d d | d/c/ B2 G/ G/ | G G G G | F d2 A/ A/ | A A A A | %38
w: gno\- la: ma so'|na\- ta'o Con te'e|Mo- * la, met\- to'a|cop\- paa chi vogl\-|i' _ _ Chi me|pi- glia pe' fran-|ce- sa, chi me|pi- glia pe' spa-|
 G d2 e/ e/ | e e e e | e/d/ c2 d/ e/ | d c B A | G2 z2 | G2 d G | F2- F z | A2 e A | G2- G z | %47
w: gno- la: ma so'|na- ta'o Con te'e|Mo _ la met- to'a|cop- paa chi vogl-|i'|Ca- ro Be-|bé, *|che guar- de a|fà? *|
 e e/ e/ e e | d G F G | c2 F2 |1 G2 z2 :|2 G2 z2 || z4 | z4 | z4 | z4 | z4 | z4 | z4 | z4 |] %60
w: Io quan- no ve- co a|te mme sen\- to|dis\- tur\-|bà.|bá.|||||||||
V:2
 b |!f! de fg | b b2 b | e^g ab | c'2 z c' | e'.e'/.e'/ .e'.e' | d' .g.f.g | !>!c'2 !>!f2 | %8
 g2{d'e'f'} g' z ||!mf! z4 | z2 z B | DE FG | B B2 D | EF A>G | F2 z d | [Fd][Fd] [Fd][Fd] | %16
 [Fd]3 e | d[cd] [Be][Af] | [Gg]2 z B | DE FG | B B2 D | EF A>G | F2 z [Fd] | [Fd]2 [=Fd]2 | %24
 [^Fd]2 [^Gd]2 | [A^c]2 [=Ge]2 | !fermata![Fd]2 z2 |!mf! z [B,DG] z [B,DG] | z [CDA] z [CFA] | %29
 z [CDA] z [CFA] | z [B,DG] z [B,DG] | z [B,DG] z [B,DE] | z [CEA] z [CEA] | z [CDA] z [CFA] | %34
 [B,DG] .G.D.B, | z [B,DG] z [B,DG] | z [CDA] z [CFA] | z [CDA] z [CFA] | z [B,DG] z [B,DG] | %39
 z [B,DE] z [B,D^G] | z [CEA] z [CEA] | z [CDA] z [CFA] | [B,DG]2 G, z |!p! z4 | %44
 z [dd']/[dd']/ [dd'] z | z4 |!<(! z [dd']/[dd']/ [dd'] z!<)! |!f! [Ge].[Ge]/.[Ge]/ .[Ge].[Ge] | %48
 [GBd] GFG | !>![DFc]2 !>![CDF]2 |1 !>![B,DG]2 !>![GBdg] z :|2 [B,DG]2 !>!.[GBdg]b ||!f! de fg | %53
 b b2 b | e^g ab | c'2 z c' | e'.e'/.e'/ .e'.e' | d' .g.f.g | !>!c'2 !>!f2 | g2{d'e'f'} g' z |] %60
V:3
 z | G,,[G,B,] D,[G,B,] | ^D,[F,B,] B,,[F,A,] | E,[^G,B,] B,,[G,D] | A,,[A,C] B,,[A,C] | %5
 [C,G,C] z [^C,G,A,] z | [D,G,B,] z z2 | !>!D,2 !>!D,,2 | G,,2{D,E,F,} G, z || G,[B,D] D,[B,D] | %10
 G,[B,D] D,[B,D] | G,[B,D] D,[B,D] | G,[B,D] D,[B,D] | G,[B,D] D,[B,D] | A,[CD] D,[CD] | %15
 A,[CD] D,[CD] | A,[CD] D,[CD] | A,[CD] D,[CD] | G, .G,.D,.B,, | G,,[B,D] D,[B,D] | %20
 G,[B,D] D,[B,D] | G,[B,D] ^C,[G,A,] | G,[CD] D,[CD] | A,[CD] D,[^G,D] | A,,[A,D] E,[B,D] | %25
 [A,^C]2 A,,2 | !fermata!D,2 z2 | [G,,G,] z [D,,D,] z | [A,,A,] z/4!f! (A,,/4B,,/4C,/4) [D,,D,] z | %29
 [A,,A,] z [D,,D,] z | [G,,G,] z/4 (D,,/4E,,/4F,,/4) G,, z | [G,,G,] z [^G,,^G,] z | %32
 [A,,A,] z [G,,G,] z | [F,,F,] z [D,,D,] z | [G,,G,] .G,.D,.B,, | [G,,G,] z [D,,D,] z | %36
 [A,,A,] z/4 (A,,/4B,,/4C,/4) [D,,D,] z | [A,,A,] z [D,,D,] z | %38
 [G,,G,] z/4 (D,,/4E,,/4F,,/4) G,, z | ^G,, z [E,,E,] z | [A,,A,] z [A,,,A,,] z | %41
 [F,,F,] z [D,,D,] z | [G,,G,]2 G,, z | G,[B,D] D,[B,D] | A,[CD] ^G,[B,D] | A,[CD] D,[CD] | %46
 G,F,E,D, | [C,G,C]2 [^C,G,^C]2 | [D,G,D] z z2 | !>!D,2 !>!D,,2 |1 G,,2 !>!.[G,,G,] z :|2 %51
 G,,2 !>!.[G,,G,] z || G,,[G,B,] D,[G,B,] | ^D,[F,B,] B,,[F,A,] | E,[^G,B,] B,,[G,D] | %55
 A,,[A,C] B,,[A,C] | [C,G,C] z [^C,G,A,] z | [D,G,B,] z z2 | !>!D,2 !>!D,,2 | G,,2{D,E,F,} G, z |] %60

